X:1
T:Edom, 87.87.77
T:Albert Lister Peace, 1885
T:Edom, 87.87.77
T:Public Domain
C:Albert Lister Peace, 1885
Z:Public Domain
%%score ( 1 2 ) ( 3 4 )
L:1/8
M:4/4
K:Bb
V:1 treble 
V:2 treble 
V:3 bass 
V:4 bass 
V:1
 [FB]3 [FA] [FB]2 [FB]2 | [FB]3 [FA] [FB]2 [FB]2 | [FB]2 [Fd]2 [Fc]2 (FG) | [FA]2 [=EG]2 F4 | %4
 F3 F [FA]2 [Cc]2 | [FA]2 F2 [FB]2 [FB]2 | [DB]3 [DB] [Fd]2 [Bf]2 | [Bd]2 [FB]2 [Ee]4 | %8
 [Ee]2 [Gc]2 [FA]2 F2 | [Dd]2 [FB]2 [EG]4 | [Gc]2 [FB]2 (FE)(DE) | [FB]2 [FA]2 [FB]4 |] %12
V:2
 x8 | x8 | x6 B2 | x4 F4 | F3 F x4 | x8 | x8 | x8 | x6 F2 | x8 | x4 A2 B2 | x8 |] %12
V:3
 [B,D]3 [F,C] [B,D]2 [B,D]2 | [B,D]3 [F,C] [B,D]2 [B,D]2 | [B,D]2 [B,,B,]2 [A,,C]2 [B,,D]2 | %3
 [C,C]2 [C,B,]2 [F,A,]4 | [F,A,]3 [F,A,] [F,C]2 [F,A,]2 | [F,C]2 [E,A,]2 [D,B,]2 [D,B,]2 | %6
 [B,,B,]3 [B,,B,] [B,,B,]2 [B,,D]2 | [B,F]2 [_A,D]2 [G,B,]4 | [C,C]2 [E,C]2 [F,C]2 [F,A,]2 | %9
 [B,,B,]2 [D,B,]2 [E,B,]4 | [C,E]2 (D,E,) [F,C]2 [G,B,]2 | [F,C]2 [F,C]2 [B,,D]4 |] %12
V:4
 x8 | x8 | x8 | x8 | x8 | x8 | x8 | x8 | x8 | x8 | x2 D2 x4 | x8 |] %12

